X: 1
T: Stockholmsmelodi
B: Evert Taubes B\"asta
C: Evert Taube
Z: John Chambers <jc@trillian.mit.edu>
L: 1/16
M: 2/4
O: Swedish, modern
R: Tango
K: Am
|: "Am"EEEE (3EFE ^DE | "E7"F4 "Am"E4 | "Dm"EEDC "E7"B,DCB, \
| "Am"A,8 :|| "F"AAAB ccBA | "E7"^G4 "A7"=G4 |
| "Dm"FFFG "Fm"_AAGF | "E7"E8 || "Am"EEEE (3EFE ^DE \
| "E7"F4 "Am"E4 | "E7"EEE^F ^GAcB | "A"A8 |] [K:A]
E2 \
[| "A"c2c2 B2B2 \
| AAAA G2G2 \
| F2F2 E2"A#dim"E2 \
| "E7"DCED B,4 \
| "Bm7"d2d2 c2c2 \
| BBFA "E7"G2F2 |
| E2B,2 C2D2 \
| "A"CDF=F "E7"E4 \
| "A"c2c2 B2B2 \
| AAAA G2G2 \
| "A7"=GFE^E F2=G2 |
| "F"A2B2 =c4 \
| "F"=c2c2 B2B2 \
| AAAA =F2F2 \
| "A"EACE "Bm"DF"E7"Bc \
| "A"(3BcB A6 |]
